X:1
T:Zina
T:C Major              Hezekiah Moors, 1809
T:Transcribed from Province Harmony, 1809.
T:Nahum Tate and Nicholas Brady, 1698 New Version (Psalm 136)             66, 66, 44. 44.
%%score [ 1 2 3 4 ]
L:1/8
Q:1/4=140
M:2/2
K:C
V:1 treble nm="Tr." snm="Tr."
V:2 treble nm="C." snm="C."
V:3 treble-8 nm="T." snm="T."
V:4 bass nm="B." snm="B."
V:1
"_2.  To him whose wondrous power,  All    o  –  ther  gods  o – bey.   Whom  earthly  kings  a   –   dore.   This grateful homage pay:""_1.  To  God  the  migh – ty      Lord,    Your joy – ful  thanks  repeat.     To   Him  due  praise  af  –  ford     As  good  as  He  is  great;" c8 | %1
 e6 d2 | c4 (d2 c2) | B8- | B4 c4 | c6 EF | G4 G4 | G8- | G4 B4 | c6 e2 | A4 (B2 c2) | d8- | %12
 d4 e4 | c6 d2 | G4 B4 | c8 |: %16
"_For God does prove  Our constant friend,  His boundless love  Shall ne         –          –         –         –         –          –         –             ver,    ne     –         –    ver,    ne– ver   end." [Gc]4 G2 c2 | %17
 d2 e2 fe dc | B6 d2 | ef ed c2 d2 | e8- | e8- | e6 d2 | (efef g2) f2 | e4 d4 | c8 :| %26
V:2
"_4.  He  spread  the  oceans  round       A – bout  the  spacious  land;   And  made the  ri–sing ground     A–bove  the  waters stand.""_5.  Through heaven he did display     His  numerous hosts of light:   The   Sun    to    rule    by    day,   The moon and stars by night.""_3.  By    his   al – migh – ty    hand       Amazing works are wrought;   The heavens by his command   Were to perfection brought." E8 | %1
 G6 G2 | G4 ^F4 | G8 | z4 E4 | F6 GF | E4 D4 | E8 | z4 G4 | G6 E2 | A4 ^F4 | G8 | z4 E4 | F6 A2 | %14
 G4 G4 | E8 |: %16
"_For God does prove  Our constant friend,                                       His boundless  love  Shall ne     –         –         –          –         –      ver,    ne    –         –   ver,    ne– ver   end." E4 E2 E2 | %17
 D2 C2 DE ^F2 | G6 z2 | z4 z2 F2 | GA GF E2 F2 | G8- | G6 G2 | (GAGF E2) G2 | G4 G4 | E8 :| %26
V:3
"_6.  He   in   our  depth  of     woes         On  us  with  fa–vor thought,   And  from  our  cru – el     foes     In peace and safety brought.""_7.  He does the  food    sup –  ply          On  which all creatures  live:    To   God  who  reigns  on  high     E – ter – nal  praises  give." G8 | %1
 c6 B2 | c4 (B2 A2) | G8 | z4 G4 | A6 B2 | c4 B4 | c8 | z4 d4 | e6 g2 | c4 (d2 c2) | B8 | z4 G4 | %13
 A6 f2 | e4 d4 | c8 |: %16
"_For God does prove  Our constant friend,                                                                             His boundless love  Shall ne    –         –     ver,   ne    –         –    ver,    ne– ver   end." c4 c2 e2 | %17
 f2 e2 dc BA | G6 z2 | z8 | z4 z2 d2 | ef ed c2 d2 | e6 f2 | (gfed c2) d2 | c4 B4 | c8 :| %26
V:4
 C,8 | C,6 G,2 | (E,2 C,2) D,4 | G,,8- | G,,4 C,4 | F,6 E,D, | C,4 G,,4 | C,8- | C,4 G,4 | C6 C2 | %10
 A,4 D,4 | G,8- | G,4 C,4 | F,6 D,2 | G,4 G,,4 | C,8 |: %16
"_For God does prove  Our constant friend,                                                                                                                     His boundless  love  Shall ne   –        –    ver,   ne– ver   end." C,4 C,2 C,2 | %17
 B,,2 A,,2 B,,C, D,2 | G,,6 z2 | z8 | z8 | z4 z2 G,2 | D,F, E,D, C,2 G,,2 | (C,D,C,D, E,2) F,2 | %24
 G,4 G,4 | C,8 :| %26

